X: 26731
T: Mikey Buckley's
R: polka
M: 2/4
K: Dmajor
f/e/d/c/ e/d/c/B/|Af de/d/|BA GE|BA FD|
f/e/d/c/ e/d/c/B/|Af de/d/|BA GE|ED D2:|
FA de|f/e/d/c/ BA|GB EG|FA BA|
FA de|f/e/d/c/ BA|GB E>F|ED D2:|

